images/vietnam.svg

<?xml version="1.0" encoding="UTF-8" standalone="no"?>
<svg width="49px" height="54px" viewBox="0 0 49 54" version="1.1" xmlns="http://www.w3.org/2000/svg" xmlns:xlink="http://www.w3.org/1999/xlink">
    <!-- Generator: Sketch 3.8.3 (29802) - http://www.bohemiancoding.com/sketch -->
    <title>Page 1</title>
    <desc>Created with Sketch.</desc>
    <defs>
        <polygon id="path-1" points="7.90591048e-05 53.6977432 48.8494464 53.6977432 48.8494464 0.256320755 7.90591048e-05 0.256320755 7.90591048e-05 53.6977432"></polygon>
    </defs>
    <g id="Page-1" stroke="none" stroke-width="1" fill="none" fill-rule="evenodd">
        <g id="Home" transform="translate(-1008.000000, -2185.000000)">
            <g id="Group-19" transform="translate(999.000000, 2185.000000)">
                <g id="Page-1" transform="translate(9.000000, 0.000000)">
                    <g id="Group-3" transform="translate(0.000000, 0.008200)">
                        <mask id="mask-2" fill="white">
                            <use xlink:href="#path-1"></use>
                        </mask>
                        <g id="Clip-2"></g>
                        <path d="M38.3835968,15.7800738 L11.8572097,15.7800738 C5.04462903,15.7800738 2.25057527,12.9190157 1.16230108,11.1038733 C3.76456989,12.2265 6.28016667,12.7954845 8.68617204,12.7954845 C10.5371075,12.7954845 12.3240269,12.4629817 14.0374462,11.7971826 C20.0399462,9.46490178 23.4188387,3.63221587 24.3793441,1.75067869 C24.8266667,2.96271347 26.0603602,5.69574343 28.7429785,8.06823141 C34.3495269,13.0253531 41.9413656,12.5082148 47.556871,11.0821826 C44.7048602,15.2751034 38.4365484,15.775577 38.3835968,15.7800738 L38.3835968,15.7800738 Z M37.5671935,25.5811023 L33.4285376,25.5811023 L33.4285376,16.3085866 L37.5671935,16.3085866 L37.5671935,25.5811023 Z M41.4921989,26.1101441 L41.4921989,29.1505474 L29.2814516,29.1505474 L19.7196022,29.1505474 L7.80522581,29.1505474 L7.80522581,26.1101441 L10.9810054,26.1101441 L38.0940753,26.1101441 L41.4921989,26.1101441 Z M37.7176183,29.7816942 L37.7176183,38.9661245 L33.8629516,38.9661245 L33.8047312,39.1512891 C33.7615269,39.28884 32.7088172,42.5117627 29.2814516,42.6807915 L29.2814516,29.6795892 L37.7379032,29.6795892 C37.7249946,29.7110671 37.7176183,29.7454549 37.7176183,29.7816942 L37.7176183,29.7816942 Z M20.2464839,53.1687808 L28.7545699,53.1687808 L28.7545699,29.6795892 L20.2464839,29.6795892 L20.2464839,53.1687808 Z M15.2558602,39.1512891 L15.1976398,38.96586 L11.3429731,38.96586 L11.3429731,29.6795892 L19.7196022,29.6795892 L19.7196022,42.6765592 C16.3401828,42.4731426 15.2990645,39.2880464 15.2558602,39.1512891 L15.2558602,39.1512891 Z M32.9016559,16.3085866 L32.9016559,25.5811023 L15.8032903,25.5811023 L15.8032903,16.3091156 L32.9016559,16.3085866 Z M11.5078871,16.3022381 C11.6251183,16.3038252 11.7376075,16.3091156 11.8572097,16.3091156 L15.2764086,16.3091156 L15.2764086,25.5811023 L11.5078871,25.5811023 L11.5078871,16.3022381 Z M48.6846613,9.4664889 C48.550043,9.41173307 48.3961935,9.47733426 48.3416613,9.61303348 C48.2262742,9.90003866 48.0932366,10.1706435 47.9507151,10.4319902 C40.0738333,12.5563576 33.5607849,11.6099018 29.1107419,7.68811487 C25.7244731,4.70458361 24.6891505,1.01795579 24.6791398,0.980922863 L24.4812957,0.25613559 L24.1830806,0.945477063 C24.1501505,1.02165908 20.8052419,8.60256363 13.8435538,11.3051737 C9.92355376,12.8269624 5.59258602,12.5383701 0.971043011,10.4478615 C0.917827957,10.4235255 0.861451613,10.423261 0.8085,10.4348999 C0.60933871,10.0000276 0.532413978,9.70270607 0.519768817,9.65085997 C0.486048387,9.50881225 0.345107527,9.42125583 0.202586022,9.45458546 C0.0613817204,9.48844414 -0.0260806452,9.63049186 0.00711290323,9.77253959 C0.0221290323,9.83576008 1.56352151,15.9332314 10.9810054,16.2916572 L10.9810054,25.5811023 L7.27834409,25.5811023 L7.27834409,29.6795892 L10.8160914,29.6795892 L10.8160914,38.96586 L7.37687097,38.96586 C7.23145161,38.96586 7.11343011,39.0843653 7.11343011,39.2303809 C7.11343011,39.3766609 7.23145161,39.4949018 7.37687097,39.4949018 L14.8214462,39.4949018 C15.1193978,40.2466702 16.441871,43.0265203 19.7196022,43.2069236 L19.7196022,53.6978226 L29.2814516,53.6978226 L29.2814516,43.2108914 C32.6034409,43.0614371 33.9396129,40.251167 34.2394086,39.4949018 L41.6837204,39.4949018 C41.8294032,39.4949018 41.9471613,39.3766609 41.9471613,39.2303809 C41.9471613,39.0843653 41.8294032,38.96586 41.6837204,38.96586 L38.2445,38.9661245 L38.2445,29.7816942 C38.2445,29.7454549 38.2371237,29.7110671 38.2239516,29.6795892 L42.0190806,29.6795892 L42.0190806,25.5811023 L38.0940753,25.5811023 L38.0940753,16.3085866 L38.4020376,16.3085866 C38.4776452,16.3030316 45.4983441,15.7475377 48.3200591,10.8597205 C48.3780161,10.8147519 48.4130538,10.7470346 48.4196398,10.6734978 C48.5692742,10.398396 48.7088978,10.1132425 48.8303441,9.81089512 C48.8846129,9.67519589 48.8192796,9.52124473 48.6846613,9.4664889 L48.6846613,9.4664889 Z" id="Fill-1" stroke="#8F8C8D" fill="#594A41" mask="url(#mask-2)"></path>
                    </g>
                </g>
            </g>
        </g>
    </g>
</svg>

<svg width="49" height="54" viewBox="0 0 49 54" xmlns="http://www.w3.org/2000/svg" xmlns:xlink="http://www.w3.org/1999/xlink"><title>Page 1</title><defs><path id="a" d="M0 53.698h48.85V.256H0v53.442z"/></defs><g transform="translate(0 .008)" fill="none" fill-rule="evenodd"><mask id="b" fill="#fff"><use xlink:href="#a"/></mask><path d="M38.384 15.78H11.857c-6.812 0-9.606-2.861-10.695-4.676 2.603 1.123 5.118 1.691 7.524 1.691 1.851 0 3.638-.332 5.351-.998C20.04 9.465 23.42 3.632 24.38 1.751c.448 1.212 1.681 3.945 4.364 6.317 5.607 4.957 13.198 4.44 18.814 3.014-2.852 4.193-9.12 4.694-9.173 4.698zm-.817 9.801H33.43V16.31h4.138v9.272zm3.925.53v3.04H7.805v-3.04H41.492zm-3.774 3.67v9.185h-3.855l-.058.185c-.043.138-1.096 3.36-4.524 3.53V29.68h8.457a.268.268 0 0 0-.02.102zM20.246 53.17h8.509v-23.49h-8.509v23.49zm-4.99-14.018l-.058-.185h-3.855V29.68h8.377v12.997c-3.38-.204-4.42-3.389-4.464-3.526zM32.902 16.31v9.272H15.803V16.31h17.099zm-21.394-.007c.117.002.23.007.35.007h3.418v9.272h-3.768v-9.279zm37.177-6.836a.263.263 0 0 0-.343.147 7.73 7.73 0 0 1-.391.819c-7.877 2.124-14.39 1.178-18.84-2.744-3.387-2.983-4.422-6.67-4.432-6.707l-.198-.725-.298.69c-.033.076-3.378 7.657-10.34 10.36-3.92 1.521-8.25 1.232-12.872-.858a.254.254 0 0 0-.162-.013 4.675 4.675 0 0 1-.29-.784.263.263 0 1 0-.512.122c.015.063 1.557 6.16 10.974 6.519v9.29H7.278v4.098h3.538v9.286h-3.44a.264.264 0 0 0 0 .529h7.445c.298.752 1.62 3.532 4.899 3.712v10.49h9.561V43.212c3.322-.15 4.659-2.96 4.958-3.716h7.445a.264.264 0 1 0 0-.529h-3.44v-9.184a.264.264 0 0 0-.02-.102h3.795V25.58h-3.925V16.31h.308c.076-.006 7.096-.561 9.918-5.45a.264.264 0 0 0 .1-.186c.15-.275.289-.56.41-.862a.265.265 0 0 0-.145-.345z" stroke="#8F8C8D" fill="#594A41" mask="url(#b)"/></g></svg>
